app/dist/common/images/schroders-plc.svg

<svg fill="none" height="18" viewBox="0 0 18 18" width="18" xmlns="http://www.w3.org/2000/svg"><path d="m0 0h18v18h-18z" fill="#f0f3fa"/><path clip-rule="evenodd" d="m7.99788 4.0011c-2.28118.4735-3.99788 2.53166-3.99788 4.9989 0 2.4672 1.7167 4.5254 3.99788 4.9989v-2.8304c-.79833-.3832-1.35083-1.21016-1.35083-2.16849 0-.95834.5525-1.78526 1.35083-2.1685zm1.99894 7.1699c.80118-.3821 1.35608-1.21055 1.35608-2.17099 0-.96045-.5549-1.78891-1.35608-2.17103v-2.82898c2.28378.47141 4.00318 2.53085 4.00318 5 0 2.4692-1.7194 4.5286-4.00318 5z" fill="#00295d" fill-rule="evenodd"/></svg>

<!-- by TradingView --><svg width="18" height="18" viewBox="0 0 18 18" fill="none" xmlns="http://www.w3.org/2000/svg">
<rect width="18" height="18" fill="#F0F3FA"/>
<path fill-rule="evenodd" clip-rule="evenodd" d="M7.99788 4.0011C5.7167 4.4746 4 6.53276 4 9C4 11.4672 5.7167 13.5254 7.99788 13.9989V11.1685C7.19955 10.7853 6.64705 9.95834 6.64705 9.00001C6.64705 8.04167 7.19955 7.21475 7.99788 6.83151V4.0011ZM9.99682 11.171C10.798 10.7889 11.3529 9.96045 11.3529 9.00001C11.3529 8.03956 10.798 7.2111 9.99682 6.82898V4C12.2806 4.47141 14 6.53085 14 9C14 11.4692 12.2806 13.5286 9.99682 14V11.171Z" fill="#00295D"/>
</svg>
